X:1177
T:Dorset=Shire March.
M:C
L:1/8
Q:1/2=72
I: :: :|
Z:Jack Campin * www.campin.me.uk * 2009
K:D
[V:1] D2|F2 D>F A2 F>A|d2 A>d    f2d>f|a2 b>d g2Tf3/e//f//|e2 e>e e2
[V:2] z2|z2 D2  F2 D>F|A2 F>A    d2A>d|f2 g>f e2Td3/c//d//|c2 A>A A2
%
[V:1] D2|F2 D>F A2 F>A|B2 g>e {d}c2B>A|B>cd>g f2Te2{de}   |d2 d>d d2  :|
[V:2] z2|z2 D2  F2 D>F|G2 E2     A2G>F|G>EF>G A2TG2       |F2 F>F F2  :|
%
[V:1] A2|d2 f>d B2 d>B|A>Fd>B    AFED |FA`dc  BA`GF       |E2 E>E E2D>E|
[V:2] z2|F2 D2  G2 B>G|F2 G2     FDEF |DF`BA  GF`ED       |A2 A>A AGFE |
%
[V:1]    F2 D>F A2 F>A|B>cd>e    dcBA |Bb`ag  f2Te2{de}   |d2 d>d d2  :|
[V:2]    D4     F2 D>F|G2 E2     A2GF |Gg`fe  d2 A2       |F2 F>F F2  :|

